X: 59
T: No_154_The_Noise_of_the_Village.krn
%%abc-version 2.0
%%abcx-abcm2ps-target-version 5.9.1 (29 Sep 2008)
%%abc-creator hum2abc beta
%%abcx-conversion-date 2020/08/10 18:54:57
%%gracespace 0 6 6
%%humdrum-veritas 1786342452
%%humdrum-veritas-data 1970741071
%%linebreak <none>
%%barnumbers 0
L: 1/8
M: 3/2
%%staves {1 2}
V: 1 clef=bass
V: 2 clef=bass
K: F
[V:1] C/C/ [I:setbarnb 1]| 
[V:2] z | 
[V:1] C2C2C2C2C>A,G,A,/A,/ | 
[V:2] G,,G,,G,,G,, G,,G,,G,,G,, G,,G,,G,,G,, | 
[V:1] A,2G,2F,2F,2F,>D,D,F,/F,/ | 
[V:2] z12 | 
[V:1] [M:2/2]F,2F,2F,2F,2 | 
[V:2] [M:2/2]z8 | 
[V:1] F,2F,2F,>D,!fermata!F,C ||  
[V:2] z8 ||  
[V:1] [M:3/2]C4(3CA,-A, (3A,G,-G,G,3C/C/ | 
[V:2] [M:3/2]z12 | 
[V:1] (3CA,-A,G,2F,2F,2F,>D,D,F,/F,/ | 
[V:2] z12 | 
[V:1] F,2F,2F,2F,2F,2F,2 |]  
[V:2] z12 |]  


